!!!!SEGMENT: pl-kk--kk-i-6--005_anonim--vultum-tuum.krn
!!!cenid: 16xx:960
!!!COM: Anonim
!!!COM-rismid: pe30004985
!!!CDT:
!!!CNT:
!!!OTL: Vultum tuum
!!!PDT:
!!!AGN: Sacred
!!!SMS-siglum: PL-Kk
!!!SMS-shelfmark: Kk.I.6
!!!SMS-shelfwork: 005 W
!!!SMS-variant:
!!!SMS-altvar:
!!!NIFC-rismid: 1001135577
!!!URL-scan: http://repozytorium.nifc.pl/skany/pl-kk-nut--i-6
!!!ONB-nifc: UWAGA: C (skan 0005, s. 6-7), T (skan 0102-0103, s. 9-10), B (skan 0214-0215, s. 8-10) Następny utwór: Rorate caeli
!!!AIN: 1 empty 1 tenor 1 vox
!!!key:
**kern	**text	**text	**kern	**text	**text	**kern	**text	**text
*part3	*part3	*part3	*part2	*part2	*part2	*part1	*part1	*part1
*staff3	*staff3	*staff3	*staff2	*staff2	*staff2	*staff1	*staff1	*staff1
*group1	*	*	*group1	*	*	*group1	*	*
*Iempty	*	*	*Itenor	*	*	*Ivox	*	*
*I"Baſsus	*	*	*I"Tenor.	*	*	*I"Cantus.	*	*
*I'B	*	*	*I'T	*	*	*I'S	*	*
*clefF4	*	*	*clefC4	*	*	*clefC4	*	*
*k[b-]	*	*	*k[b-]	*	*	*k[b-]	*	*
*F:	*	*	*F:	*	*	*F:	*	*
*M2/1	*	*	*M2/1	*	*	*M2/1	*	*
*met(C|)	*	*	*met(C|)	*	*	*met(C|)	*	*
=1-	=1-	=1-	=1-	=1-	=1-	=1-	=1-	=1-
!LO:TX:t=P:problem=przed kluczem inicjał V	!	!	!LO:TX:a:t=Introitus\nTpe Natiui&colon;tatis.	!	!	!LO:TX:t=P:problem=przed kluczem inicjał V	!	!
!	!	!	!LO:TX:t=P:problem=przed kluczem inicjał V	!	!	!	!	!
1rD	.	.	1B-	Vul-	.	1G	Vul-	.
*	*	*	*	*	*	*lig	*	*
1D	Vul-	.	4A/	-tum	.	1F	-tum	.
.	.	.	4G/	.	.	.	.	.
.	.	.	4A/	.	.	.	.	.
.	.	.	4B-\	.	.	.	.	.
=2-	=2-	=2-	=2-	=2-	=2-	=2-	=2-	=2-
1C	-tum	.	2.c\	tu-	.	1G	.	.
.	.	.	4B-\	.	.	.	.	.
*	*	*	*	*	*	*Xlig	*	*
*	*	*	*	*	*	*lig	*	*
2.D/	tu-	.	4A/	.	.	1F	.	.
.	.	.	4G/	.	.	.	.	.
.	.	.	1F/	.	.	.	.	.
4C/	.	.	.	.	.	.	.	.
=3-	=3-	=3-	=3-	=3-	=3-	=3-	=3-	=3-
4BB-/	.	.	.	.	.	1D	.	.
4AA/	.	.	.	.	.	.	.	.
2GG/	.	.	2G/	.	.	.	.	.
*	*	*	*	*	*	*Xlig	*	*
1D	.	.	1A	.	.	1F	tu-	.
=4-	=4-	=4-	=4-	=4-	=4-	=4-	=4-	=4-
*	*	*	*	*	*	*lig	*	*
2GG/	-um	.	2B-\	.	.	1G	.	.
2C/	de-	.	2c\	.	.	.	.	.
*	*	*	*custos:G	*	*	*	*	*
4D/	-pre-	.	1A	-um	.	1F	.	.
4E\	.	.	.	.	.	.	.	.
4F\	.	.	.	.	.	.	.	.
4D/	.	.	.	.	.	.	.	.
*	*	*	*	*	*	*Xlig	*	*
!	!	!	!LO:LB:g=original	!	!	!	!	!
=5-	=5-	=5-	=5-	=5-	=5-	=5-	=5-	=5-
!	!	!	!LO:TX:t=P:global:problem=oddech jako rozdzielacz słów	!	!	!LO:TX:t=P:global:problem=oddech jako rozdzielacz słów	!	!
2.E-X\	-ca-	.	2G,</	um	.	0G,<	-um	.
.	.	.	2C/	de-	.	.	.	.
*custos:C	*	*	*	*	*	*	*	*
4D/	.	.	.	.	.	.	.	.
!LO:LB:g=original	!	!	!	!	!	!	!	!
2C/	.	.	2C/	-pre-	.	.	.	.
2BB-/	.	.	2D/	-ca-	.	.	.	.
=6-	=6-	=6-	=6-	=6-	=6-	=6-	=6-	=6-
!	!	!	!LO:SIC:v:s=1F	!	!	!	!	!
1AA	-bun-	.	1G	-bun-	.	1F	de-	.
!LO:TX:t=P:global:problem=oddech jako rozdzielacz słów	!	!	!	!	!	!	!	!
2GG,</	-túr	.	2D/	-tur	.	1G	-pre-	.
*	*	*	*	*ij	*	*	*	*
2C/	de-	.	2E/	de-	.	.	.	.
=7-	=7-	=7-	=7-	=7-	=7-	=7-	=7-	=7-
*	*	*	*	*	*	*lig	*	*
2.BB-/	-pre-	.	2F/	-pre-	.	1B-	-ca-	.
.	.	.	1G	-ca-	.	.	.	.
4C/	-ca-	.	.	.	.	.	.	.
1D	-bun-	.	.	.	.	1A	.	.
.	.	.	2F/	-bun-	.	.	.	.
*	*	*	*	*	*	*Xlig	*	*
=8-	=8-	=8-	=8-	=8-	=8-	=8-	=8-	=8-
2GG,</	-túr	.	1G	-tur	.	1B-	-bun-	.
*	*	*	*	*Xij	*	*	*	*
2G\	O-	.	.	.	.	.	.	.
*2\right	*	*	*	*	*	*	*	*
2G\	-mnes	.	2r	.	.	1G,<	-tur	.
2.B-\	di-	.	2d\	O-	.	.	.	.
=9-	=9-	=9-	=9-	=9-	=9-	=9-	=9-	=9-
*	*	*	*	*	*	*lig	*	*
.	.	.	1d	-mnes	.	1G	O-	.
4A\	.	.	.	.	.	.	.	.
4G\	.	.	.	.	.	.	.	.
4F\	.	.	.	.	.	.	.	.
*	*	*	*	*	*	*custos:G	*	*
!LO:SIC:v:s=2E-	!	!	!	!	!	!	!	!
2Eny\	-ui-	.	2e-X\	di-	.	1B-	.	.
2BB-/	-tes	.	2d\	-ui-	.	.	.	.
*	*	*	*	*	*	*Xlig	*	*
!	!	!	!	!	!	!LO:LB:g=original	!	!
=10-	=10-	=10-	=10-	=10-	=10-	=10-	=10-	=10-
*custos:BB	*	*	*	*	*	*	*	*
1C	ple-	.	1c	-tes	.	1G,<	-mnes	.
!LO:LB:g=original	!	!	!	!	!	!	!	!
2BB-/	-bis	.	2.d\	ple-	.	1B-	di-	.
2GG/	di-	.	.	.	.	.	.	.
.	.	.	4c\	.	.	.	.	.
=11-	=11-	=11-	=11-	=11-	=11-	=11-	=11-	=11-
2.BB-/	-ui-	.	4B-\	.	.	1B-	-ui-	.
.	.	.	4A/	.	.	.	.	.
.	.	.	1G	.	.	.	.	.
4C/	.	.	.	.	.	.	.	.
*	*	*	*	*	*	*lig	*	*
1AA	-tes	.	.	.	.	1c	.	.
*	*	*	*custos:G	*	*	*	*	*
.	.	.	2F/	.	.	.	.	.
!	!	!	!LO:LB:g=original	!	!	!	!	!
=12-	=12-	=12-	=12-	=12-	=12-	=12-	=12-	=12-
4GG/	ple-	.	1G	-bis	.	1B-	.	.
4AA/	.	.	.	.	.	.	.	.
4BB-/	.	.	.	.	.	.	.	.
4C/	.	.	.	.	.	.	.	.
*	*	*	*	*	*	*Xlig	*	*
1D	-bis	.	2r	.	.	1F	-tes	.
.	.	.	2d\	O-	.	.	.	.
=13-	=13-	=13-	=13-	=13-	=13-	=13-	=13-	=13-
*	*	*	*	*	*	*lig	*	*
2r	.	.	1d	-mnes	.	1B-	.	.
2G\	O-	.	.	.	.	.	.	.
!	!	!	!LO:SIC:v:s=2e-	!	!	!	!	!
2G\	-mnes	.	2eny\	di-	.	1G,<	.	.
2.B-\	di-	.	2.d\	-ui-	.	.	.	.
*	*	*	*	*	*	*Xlig	*	*
=14-	=14-	=14-	=14-	=14-	=14-	=14-	=14-	=14-
.	.	.	.	.	.	1G	ple-	.
4A\	.	.	4c\	.	.	.	.	.
4G\	.	.	4B-\	.	.	.	.	.
4F\	.	.	4A/	.	.	.	.	.
!LO:SIC:v:s=2E-	!	!	!	!	!	!	!	!
*	*	*	*	*	*	*lig	*	*
2E\	-ui-	.	2G/	.	.	1B-	.	.
2BB-/	-tes	.	2F/	-tes	.	.	.	.
=15-	=15-	=15-	=15-	=15-	=15-	=15-	=15-	=15-
*custos:GG	*	*	*	*	*	*	*	*
!	!	!	!LO:TX:t=P:problem=♯ below	!	!	!	!	!
!	!	!	!LO:N:acc=#	!	!	!	!	!
1C	ple-	.	1En	ple-	.	1G	.	.
*	*	*	*	*	*	*Xlig	*	*
!LO:PB:g=original	!	!	!	!	!	!	!	!
2GG/	-bis	.	2D/	-bis	.	1G,<	-bis	.
2G\	ad-	.	2G/	ad-	.	.	.	.
=16-	=16-	=16-	=16-	=16-	=16-	=16-	=16-	=16-
2D/	-du-	.	2A/	-du-	.	1F	ad-	.
2G\	-cen-	.	2D/	-cen-	.	.	.	.
2C/	-tur	.	2E/	-tur	.	1G	-du-	.
!LO:SIC:v:s=1E-	!	!	!	!	!	!	!	!
1E\	Re-	.	1G/	Re-	.	.	.	.
=17-	=17-	=17-	=17-	=17-	=17-	=17-	=17-	=17-
.	.	.	.	.	.	0B-	-cen-	.
4D/	.	.	4F/	.	.	.	.	.
!	!	!	!LO:SIC:v:s=4E-	!	!	!	!	!
4C/	.	.	4E/	.	.	.	.	.
2BB-/	.	.	4F/	.	.	.	.	.
.	.	.	4D/	.	.	.	.	.
4AA/	.	.	1G/	.	.	.	.	.
4GG/	.	.	.	.	.	.	.	.
=18-	=18-	=18-	=18-	=18-	=18-	=18-	=18-	=18-
1AA	.	.	.	.	.	1c	-tur	.
*	*	*	*custos:G	*	*	*	*	*
.	.	.	2F/	.	.	.	.	.
!	!	!	!LO:LB:g=original	!	!	!	!	!
2GG/	-gi	.	1G	-gi	.	1B-,<	.	.
*2\left	*	*	*	*	*	*	*	*
2G\	ad-	.	.	.	.	.	.	.
=19-	=19-	=19-	=19-	=19-	=19-	=19-	=19-	=19-
*	*	*	*	*	*	*lig	*	*
2G\	-du-	.	1rA	.	.	1B-	Re-	.
2G\	-cen-	.	.	.	.	.	.	.
*	*	*	*	*	*	*custos:c	*	*
2C/	-tur	.	1G	ad-	.	1c	.	.
1C/	Re-	.	.	.	.	.	.	.
*	*	*	*	*	*	*Xlig	*	*
!	!	!	!	!	!	!LO:LB:g=original	!	!
=20-	=20-	=20-	=20-	=20-	=20-	=20-	=20-	=20-
*	*	*	*	*	*	*lig	*	*
.	.	.	2c\	-du-	.	1c	-gi	.
2C/	-gi	.	2e-X\	-cen-	.	.	.	.
2.D/	Vir-	.	2.d\	-tur	.	1A	.	.
*custos:GG	*	*	*	*	*	*	*	*
4D/	-gi-	.	4c\	.	.	.	.	.
*	*	*	*	*	*	*Xlig	*	*
!LO:LB:g=original	!	!	!	!	!	!	!	!
=21-	=21-	=21-	=21-	=21-	=21-	=21-	=21-	=21-
*	*	*	*	*	*	*lig	*	*
0GG	-nes	.	4B-\	.	.	1B-	.	.
.	.	.	4A/	.	.	.	.	.
.	.	.	2G/	.	.	.	.	.
.	.	.	2.B-\	Re-	.	1G,<	.	.
.	.	.	4c\	.	.	.	.	.
*	*	*	*	*	*	*Xlig	*	*
=22-	=22-	=22-	=22-	=22-	=22-	=22-	=22-	=22-
2r	.	.	1d	-gi	.	1G	Vir-	.
*2\right	*	*	*	*	*	*	*	*
2G\	ad-	.	.	.	.	.	.	.
*	*	*	*	*	*	*lig	*	*
2G\	-du-	.	2B-\	Vir-	.	1B-	.	.
*2\left	*	*	*	*	*	*	*	*
2G\	-cen-	.	2d\	-gi-	.	.	.	.
=23-	=23-	=23-	=23-	=23-	=23-	=23-	=23-	=23-
2C/	-tur	.	1c	-nes	.	1G	.	.
1C	Re-	.	.	.	.	.	.	.
*	*	*	*	*	*	*Xlig	*	*
.	.	.	2rF	.	.	1G	-gi-	.
2C/	-gi	.	2C/	Re-	.	.	.	.
=24-	=24-	=24-	=24-	=24-	=24-	=24-	=24-	=24-
2BB-/	Vir-	.	2D/	-gi	.	1G	-nes	.
*	*	*	*custos:D	*	*	*	*	*
2.GG/	.	.	2D/	Vir-	.	.	.	.
!	!	!	!LO:LB:g=original	!	!	!	!	!
.	.	.	2.D/	-gi-	.	1B-	post	.
4AA/	.	.	.	.	.	.	.	.
4BB-/	.	.	.	.	.	.	.	.
4C/	.	.	4E/	.	.	.	.	.
=25-	=25-	=25-	=25-	=25-	=25-	=25-	=25-	=25-
*	*	*	*	*	*	*lig	*	*
2D/	-gi-	.	2F/	-nes	.	1B-	e-	.
2BB-/	-nes	.	1G	post	.	.	.	.
2C/	post	.	.	.	.	1A	.	.
2D/	e-	.	2F/	e-	.	.	.	.
*	*	*	*	*	*	*Xlig	*	*
=26-	=26-	=26-	=26-	=26-	=26-	=26-	=26-	=26-
2GG/	-am	.	2G,</	-am	.	1G,<	-am	.
2G\	pro-	.	2d\	pro-	.	.	.	.
2.G\	-xi-	.	2d\	-xi-	.	1B-	pro-	.
!	!	!	!LO:SIC:v:l:s=-mae	!	!	!	!	!
.	.	.	1B-\	-me	.	.	.	.
*custos:E	*	*	*	*	*	*	*	*
4F\	.	.	.	.	.	.	.	.
!LO:LB:g=original	!	!	!	!	!	!	!	!
=27-	=27-	=27-	=27-	=27-	=27-	=27-	=27-	=27-
1E-X	.	.	.	.	.	1G	-xi-	.
.	.	.	4A/	.	.	.	.	.
.	.	.	4G/	.	.	.	.	.
!LO:SIC:v:l:s=-mae	!	!	!	!	!	!	!	!
*	*	*	*	*	*	*lig	*	*
!	!	!	!	!	!	!LO:SIC:v:l:s=-mae	!	!
1D	-me	.	1A	e-	.	1F	-me	.
=28-	=28-	=28-	=28-	=28-	=28-	=28-	=28-	=28-
4GG/	e-	.	2G/	-ius	.	1B-	.	.
4AA/	.	.	.	.	.	.	.	.
4BB-/	.	.	4D/	pro-	.	.	.	.
!	!	!	!LO:SIC:v:s=4E-	!	!	!	!	!
4C/	.	.	4E/	.	.	.	.	.
*	*	*	*	*	*	*Xlig	*	*
*	*	*	*	*	*	*lig	*	*
1D	.	.	4F/	.	.	1F	.	.
.	.	.	4G/	.	.	.	.	.
.	.	.	2A/	-xi-	.	.	.	.
=29-	=29-	=29-	=29-	=29-	=29-	=29-	=29-	=29-
*	*	*	*	*	*	*custos:G	*	*
!	!	!	!LO:SIC:v:l:s=-mae	!	!	!	!	!
1GG	-ius	.	4G/	-me	.	1G,<	.	.
.	.	.	4F/	.	.	.	.	.
.	.	.	4E/	.	.	.	.	.
.	.	.	4D/	.	.	.	.	.
*	*	*	*	*	*	*Xlig	*	*
!	!	!	!	!	!LO:LB:g=original	!	!	!
1rBB	.	.	1E-X	e-	.	1G	e-	.
=30-	=30-	=30-	=30-	=30-	=30-	=30-	=30-	=30-
*	*	*	*	*	*	*lig	*	*
*	*	*	*custos:G	*	*	*	*	*
1BB-	ad-	.	1D	-ius	.	1B-	.	.
!LO:SIC:v:s=1E-	!	!	!LO:PB:g=original	!	!	!	!	!
1Eny	-du-	.	2r	.	.	1G	.	.
.	.	.	2G/	ad-	.	.	.	.
*	*	*	*	*	*	*Xlig	*	*
=31-	=31-	=31-	=31-	=31-	=31-	=31-	=31-	=31-
!LO:SIC:v:s=1E-	!	!	!	!	!	!	!	!
1E	-cen-	.	1B-	-du-	.	1G,<	-ius	.
1BB-	-tur	.	1B-	-cen-	.	1F	ad-	.
=32-	=32-	=32-	=32-	=32-	=32-	=32-	=32-	=32-
1BB-	ti-	.	1F	-tur	.	0B-	-du-	.
2GG/	-bi	.	2G/	ti-	.	.	.	.
*	*ij	*	*	*	*	*	*	*
2BB-/	ad-	.	2D/	-bi	.	.	.	.
=33-	=33-	=33-	=33-	=33-	=33-	=33-	=33-	=33-
!LO:SIC:v:s=1E-	!	!	!	!	!	!	!	!
1E	-du-	.	2rF	.	.	1B-	-cen-	.
*	*	*	*	*ij	*	*	*	*
.	.	.	2G/	ad-	.	.	.	.
*custos:C	*	*	*	*	*	*	*	*
1D	-cen-	.	2F/	-du-	.	1F,<	-tur	.
.	.	.	2D/	.	.	.	.	.
!LO:LB:g=original	!	!	!	!	!	!	!	!
=34-	=34-	=34-	=34-	=34-	=34-	=34-	=34-	=34-
2C/	-tur	.	2Eny/	.	.	1G	ti-	.
2BB-/	ti-	.	1F	-cen-	.	.	.	.
*	*	*	*	*	*	*lig	*	*
1C	-bi	.	.	.	.	1G	-bi	.
*	*Xij	*	*	*	*	*	*	*
.	.	.	2E/	-tur	.	.	.	.
=35-	=35-	=35-	=35-	=35-	=35-	=35-	=35-	=35-
2r	.	.	4F/	ti-	.	1F,<	.	.
.	.	.	4G/	.	.	.	.	.
*2\right	*	*	*	*	*	*	*	*
2F\	in	.	4A/	.	.	.	.	.
.	.	.	4B-\	.	.	.	.	.
*	*	*	*	*	*	*Xlig	*	*
*	*	*	*	*	*	*lig	*	*
1A	lae-	.	2c\	.	.	1F	in	.
*	*	*	*custos:e	*	*	*	*	*
.	.	.	2c\	-bi	.	.	.	.
*	*	*	*	*Xij	*	*	*	*
!	!	!	!LO:LB:g=original	!	!	!	!	!
=36-	=36-	=36-	=36-	=36-	=36-	=36-	=36-	=36-
2.B-\	-ti-	.	2e-X\	in	.	1G,<	.	.
.	.	.	2.d\	lae-	.	.	.	.
4A\	.	.	.	.	.	.	.	.
*	*	*	*	*	*	*Xlig	*	*
1G	.	.	.	.	.	1B-	lae-	.
.	.	.	4c\	.	.	.	.	.
.	.	.	1B-\	-ti-	.	.	.	.
=37-	=37-	=37-	=37-	=37-	=37-	=37-	=37-	=37-
1F	-ti-	.	.	.	.	1c	-ti-	.
.	.	.	2A/	-ti-	.	.	.	.
1BB-	-a	.	2B-\	-a	.	1B-	-ti-	.
.	.	.	2d\	in	.	.	.	.
=38-	=38-	=38-	=38-	=38-	=38-	=38-	=38-	=38-
2r	.	.	2.d\	lae-	.	1B-	-a	.
2BB-/	in	.	.	.	.	.	.	.
.	.	.	4c\	.	.	.	.	.
*	*	*	*	*	*	*lig	*	*
4BB-/	lae-	.	2B-\	.	.	1d	.	.
4C/	.	.	.	.	.	.	.	.
4D/	.	.	4A/	.	.	.	.	.
4E\	.	.	4G/	.	.	.	.	.
=39-	=39-	=39-	=39-	=39-	=39-	=39-	=39-	=39-
*	*	*	*	*	*	*custos:B	*	*
1F	.	.	1A	-ti-	.	1c	.	.
*	*	*	*	*	*	*Xlig	*	*
*	*	*	*	*	*	*lig	*	*
!	!	!	!	!	!	!LO:PB:g=original	!	!
1G	-ti-	.	4B-\	.	.	1B-	.	.
.	.	.	4c\	.	.	.	.	.
.	.	.	4d\	.	.	.	.	.
!	!	!	!LO:SIC:v:s=4e-	!	!	!	!	!
.	.	.	4eny\	-ti-	.	.	.	.
=40-	=40-	=40-	=40-	=40-	=40-	=40-	=40-	=40-
1D	-ti-	.	1d	-a	.	1A	.	.
*	*	*	*	*	*	*Xlig	*	*
*	*	*	*	*	*	*lig	*	*
*custos:GG	*	*	*	*	*	*	*	*
1GG	-a	.	2D/	et	.	1B-	.	.
.	.	.	4D/	e-	.	.	.	.
*	*	*	*custos:G	*	*	*	*	*
.	.	.	4D/	-xul-	.	.	.	.
!LO:LB:g=original	!	!	!LO:LB:g=original	!	!	!	!	!
=41-	=41-	=41-	=41-	=41-	=41-	=41-	=41-	=41-
2GG/	et	.	2G/	-ta-	.	1G,<	.	.
4GG/	e-	.	2D/	-ti-	.	.	.	.
4GG/	-xul-	.	.	.	.	.	.	.
*	*	*	*	*	*	*Xlig	*	*
!	!	!	!LO:SIC:v:s=2E-	!	!	!	!	!
2C/	-ta-	.	2E/	-o-	.	1G	et	.
2BB-/	-ti-	.	2D/	-ne	.	.	.	.
=42-	=42-	=42-	=42-	=42-	=42-	=42-	=42-	=42-
*2\left	*	*	*	*	*	*	*	*
!LO:SIC:v:s=2.E-	!	!	!	!	!	!	!	!
2.E\	-o-	.	0rF	.	.	1G	e-	.
4D/	.	.	.	.	.	.	.	.
*	*	*	*	*	*	*lig	*	*
1C	-ne	.	.	.	.	1G	-xul-	.
=43-	=43-	=43-	=43-	=43-	=43-	=43-	=43-	=43-
*	*	*	*	*ij	*	*	*	*
1BB-	.	.	2D/	et	.	1B-	.	.
.	.	.	4D/	e-	.	.	.	.
.	.	.	4D/	-xul-	.	.	.	.
*	*	*	*	*	*	*Xlig	*	*
1rD	.	.	2G/	-ta-	.	1G	-ta-	.
.	.	.	2E-X/	-ti-	.	.	.	.
=44-	=44-	=44-	=44-	=44-	=44-	=44-	=44-	=44-
*	*	*	*	*	*	*lig	*	*
2D/	et	.	2F/	-o-	.	1F	-ti-	.
4D/	e-	.	2D/	-ne	.	.	.	.
*	*	*	*	*Xij	*	*	*	*
4D/	-xul-	.	.	.	.	.	.	.
2G\	-ta-	.	1rA	.	.	1B-	.	.
2E-X\	-ti-	.	.	.	.	.	.	.
*	*	*	*	*	*	*Xlig	*	*
=45-	=45-	=45-	=45-	=45-	=45-	=45-	=45-	=45-
*	*	*	*	*	*	*lig	*	*
2F\	-o-	.	2A/	et	.	1F	.	.
2D/	-ne	.	4A/	e-	.	.	.	.
.	.	.	4A/	-xul-	.	.	.	.
2GG/	et	.	4B-\	-ta-	.	1G	.	.
.	.	.	4A/	.	.	.	.	.
4GG/	e-	.	4G/	.	.	.	.	.
*custos:C	*	*	*	*	*	*	*	*
4GG/	-xul-	.	4F/	.	.	.	.	.
*	*	*	*	*	*	*Xlig	*	*
!LO:LB:g=original	!	!	!	!	!	!	!	!
=46-	=46-	=46-	=46-	=46-	=46-	=46-	=46-	=46-
*	*	*	*	*	*	*lig	*	*
!	!	!	!LO:SIC:v:s=4E-	!	!	!	!	!
2C/	-ta-	.	4Eny/	.	.	1G	-o-	.
.	.	.	4D/	-ti-	.	.	.	.
!LO:SIC:v:s=2E-	!	!	!	!	!	!	!	!
2Eny\	-ti-	.	1G	-o-	.	.	.	.
1D	-o-	.	.	.	.	1A	.	.
*	*	*	*custos:G	*	*	*	*	*
.	.	.	2F/	.	.	.	.	.
*	*	*	*	*	*	*Xlig	*	*
!	!	!	!LO:LB:g=original	!	!	!	!	!
=47-	=47-	=47-	=47-	=47-	=47-	=47-	=47-	=47-
*	*	*	*	*	*	*lig	*	*
1GG	-ne	.	1G	-ne	.	1B-	.	.
*	*ij	*	*	*	*	*	*	*
2GG/	et	.	2r	.	.	1G	.	.
*	*	*	*2\right	*ij	*	*	*	*
4GG/	e-	.	2d\	et	.	.	.	.
4GG/	-xul-	.	.	.	.	.	.	.
*	*	*	*	*	*	*Xlig	*	*
=48-	=48-	=48-	=48-	=48-	=48-	=48-	=48-	=48-
!	!	!	!LO:SIC:v:s=2e-	!	!	!LO:TX:b:t=Vers(us).	!	!
2C/	-ta-	.	2e\	e-	.	[0Gl;;	-ne	.
2BB-/	-ti-	.	2d\	-xul-	.	.	.	.
!LO:SIC:v:s=2E-	!	!	!	!	!	!	!	!
*2\right	*	*	*	*	*	*	*	*
2.E\	-o-	.	2B-\	-ta-	.	.	.	.
.	.	.	2G/	-ti-	.	.	.	.
4D/	.	.	.	.	.	.	.	.
=49-	=49-	=49-	=49-	=49-	=49-	=49-	=49-	=49-
4C/	.	.	1c	-o-	.	0G]	.	.
4BB-/	.	.	.	.	.	.	.	.
2C/	.	.	.	.	.	.	.	.
!LO:TX:b:t=Versus.	!	!	!	!	!	!	!	!
1GGl;;	-ne	.	1B-l;;	-ne	.	.	.	.
*	*Xij	*	*	*Xij	*	*	*	*
!LO:PB:g=original	!	!	!	!	!	!LO:LB:g=original	!	!
=50||-	=50||-	=50||-	=50||-	=50||-	=50||-	=50||-	=50||-	=50||-
*M2/1	*	*	*M2/1	*	*	*M2/1	*	*
*met(C|)	*	*	*met(C|)	*	*	*met(C|)	*	*
!	!	!	!LO:TX:t=P:problem=przed metrum inicjał G	!	!	!	!	!
1D	E-	Glo-	1A	E-	Glo-	1F	E-	Glo-
1C	-ru-	-ri-	1c	-ru-	-ri-	1G	-ru-	-ri-
=51-	=51-	=51-	=51-	=51-	=51-	=51-	=51-	=51-
1BB-	-cta-	-a	1d	-cta-	-a	1B-	-cta-	-a
2GG/	-uit	.	2d\	-uit	.	1B-,<	-uit	.
!LO:SIC:v:s=1E-	!	!	!	!	!	!	!	!
1E\	Cor	.	2G/	cor	.	.	.	.
=52-	=52-	=52-	=52-	=52-	=52-	=52-	=52-	=52-
.	.	.	2G/	me-	.	1B-,<	Cor	.
*	*	*	*custos:G	*	*	*	*	*
!LO:SIC:v:s=2E-	!	!	!	!	!	!	!	!
2E\	me-	.	2G/	-um	.	.	.	.
!LO:SIC:v:s=1E-	!	!	!LO:LB:g=original	!	!	!	!	!
1E	-um	.	2r	.	.	1B-	me-	.
.	.	.	1G/	Cor	.	.	.	.
=53-	=53-	=53-	=53-	=53-	=53-	=53-	=53-	=53-
2r	.	.	.	.	.	1B-,<	-um	.
2BB-/	Cor	.	2F/	me-	.	.	.	.
!LO:SIC:v:s=2E-	!	!	!	!	!	!	!	!
2E\	me-	.	2G/	-um	.	1B-	Ver-	.
2G\	-um	.	1B-\	Ver-	.	.	.	.
=54-	=54-	=54-	=54-	=54-	=54-	=54-	=54-	=54-
1F	Ver-	.	.	.	.	1c,<	-bum	.
.	.	.	4A/	.	.	.	.	.
.	.	.	4G/	.	.	.	.	.
2F\	-bum	.	2A/	-bum	.	1c	bo-	.
2F\	bo-	.	2A/	bo-	.	.	.	.
=55-	=55-	=55-	=55-	=55-	=55-	=55-	=55-	=55-
*	*	*	*2\left	*	*	*	*	*
2BB-/	-num	.	2B-\	-num	.	1B-,<	-num	.
2BB-/	di-	.	2F/	di-	.	.	.	.
!LO:SIC:v:s=2E-	!	!	!	!	!	!	!	!
2E\	-co	.	2G/	-co	.	1G	di-	.
*custos:E	*	*	*	*	*	*	*	*
!LO:SIC:v:s=2E-	!	!	!	!	!	!	!	!
2E\	e-	.	4B-\	e-	.	.	.	.
.	.	.	4A/	.	.	.	.	.
!LO:LB:g=original	!	!	!	!	!	!	!	!
=56-	=56-	=56-	=56-	=56-	=56-	=56-	=56-	=56-
!LO:SIC:v:s=1E-	!	!	!	!	!	!	!	!
1E	-go	.	4G/	.	.	1B-,<	-co	.
.	.	.	4F/	.	.	.	.	.
.	.	.	2G/	.	.	.	.	.
2r	.	.	1G	-go	.	1B-	e-	.
!LO:SIC:v:s=2E-	!	!	!	!	!	!	!	!
2E\	o-	.	.	.	.	.	.	.
=57-	=57-	=57-	=57-	=57-	=57-	=57-	=57-	=57-
!LO:SIC:v:s=2E-	!	!	!	!	!	!	!	!
2E\	-pe-	.	2r	.	.	1B-,<	-go	.
!LO:SIC:v:s=1E-	!	!	!	!	!	!	!	!
1E	-ra	.	1G	o-	.	.	.	.
.	.	.	.	.	.	1B-	o-	.
4D/	.	.	4F/	-pe-	.	.	.	.
!	!	!	!LO:SIC:v:s=4E-	!	!	!	!	!
4C/	.	.	4E/	-ra	.	.	.	.
=58-	=58-	=58-	=58-	=58-	=58-	=58-	=58-	=58-
2BB-/	me-	.	4F/	me-	.	1B-	-pe-	.
.	.	.	4D/	.	.	.	.	.
4AA/	-a	.	1G	-a	.	.	.	.
4GG/	.	.	.	.	.	.	.	.
1AA	Re-	.	.	.	.	1c,<	-ra	.
*	*	*	*custos:G	*	*	*	*	*
.	.	.	2F/	Re-	.	.	.	.
!	!	!	!LO:LB:g=original	!	!	!LO:LB:g=original	!	!
=59-	=59-	=59-	=59-	=59-	=59-	=59-	=59-	=59-
*	*	*	*	*	*	*lig	*	*
1GG	-gi	.	1G	-gi	.	1B-	me-	.
!LO:SIC:v:s=1E-	!	!	!	!	!	!	!	!
1E	o-	.	2rF	.	.	1G	.	.
.	.	.	2B-\	o-	.	.	.	.
*	*	*	*	*	*	*Xlig	*	*
=60-	=60-	=60-	=60-	=60-	=60-	=60-	=60-	=60-
!LO:SIC:v:s=1E-	!	!	!	!	!	!	!	!
1E	-pe-	.	2G/	-pe-	.	1B-,<	-a	.
.	.	.	2G/	-ra	.	.	.	.
*	*	*	*	*	*	*lig	*	*
2.F\	-ra-	.	4c\	me-	.	1A	Re-	.
.	.	.	4B-\	.	.	.	.	.
.	.	.	4A/	.	.	.	.	.
!LO:SIC:v:s=4E-	!	!	!	!	!	!	!	!
4E\	.	.	4G/	.	.	.	.	.
=61-	=61-	=61-	=61-	=61-	=61-	=61-	=61-	=61-
4D/	.	.	2A/	-a	.	1F	.	.
4C/	.	.	.	.	.	.	.	.
2BB-/	.	.	2.B-\	Re-	.	.	.	.
*	*	*	*	*	*	*Xlig	*	*
!LO:SIC:v:s=1E-	!	!	!	!	!	!	!	!
1E	-me-	.	.	.	.	1G	-gi	.
.	.	.	4A/	.	.	.	.	.
.	.	.	1G/	.	.	.	.	.
=62-	=62-	=62-	=62-	=62-	=62-	=62-	=62-	=62-
*	*	*	*	*	*	*lig	*	*
1D	.	.	.	.	.	1A	.	.
.	.	.	2F/	.	.	.	.	.
1GG	-a	.	2G,</	-gi	.	1B-	.	.
*	*	*	*2\right	*ij	*	*	*	*
.	.	.	2d\	o-	.	.	.	.
*	*	*	*	*	*	*Xlig	*	*
=63-	=63-	=63-	=63-	=63-	=63-	=63-	=63-	=63-
0C	Re-	.	2c\	-pe-	.	[0Gl;;	.	.
*	*	*	*2\left	*	*	*	*	*
.	.	.	2c\	-ra	.	.	.	.
.	.	.	2G/	me-	.	.	.	.
.	.	.	1c\	-a	.	.	.	.
=64-	=64-	=64-	=64-	=64-	=64-	=64-	=64-	=64-
0GGl;;	-gi	.	.	.	.	0G]	.	.
!	!	!	!LO:TX:t=P:problem=♯above	!	!	!	!	!
!	!	!	!LO:N:acc=#	!	!	!	!	!
.	.	.	4Bn\	Re-	.	.	.	.
.	.	.	4A/	.	.	.	.	.
.	.	.	1Bl;;	-gi	.	.	.	.
*	*	*	*	*Xij	*	*	*	*
==	==	==	==	==	==	==	==	==
*-	*-	*-	*-	*-	*-	*-	*-	*-
!!!system-decoration: [g1]
!!!RDF**kern: > = above
!!!RDF**kern: < = below
!!!RDF**kern: l = terminal long
!!!ENC: Andrzej Kubiczek
!!!END: 2021-03-21
!!!ENC: Andrzej Borzym
!!!END: 2021-03-06
